svg/cog_stop_outline.svg

<svg xmlns="http://www.w3.org/2000/svg" viewBox="0 0 24 24"><path d="M13.54 22H10c-.25 0-.46-.18-.5-.42l-.37-2.65c-.63-.25-1.17-.59-1.69-.99l-2.49 1.01c-.22.08-.49 0-.61-.22l-2-3.46a.493.493 0 0 1 .12-.64l2.11-1.66L4.5 12l.07-1-2.11-1.63a.493.493 0 0 1-.12-.64l2-3.46c.12-.22.39-.31.61-.22l2.49 1c.52-.39 1.06-.73 1.69-.98l.37-2.65c.04-.24.25-.42.5-.42h4c.25 0 .46.18.5.42l.37 2.65c.63.25 1.17.59 1.69.98l2.49-1c.22-.09.49 0 .61.22l2 3.46c.13.22.07.49-.12.64L19.43 11l.07 1v.19c-.5-.12-1-.19-1.5-.19-.17 0-.34 0-.5.03 0-.62-.1-1.24-.3-1.83l2.11-1.55-.75-1.3-2.41 1.04a5.42 5.42 0 0 0-3.03-1.77L12.75 4h-1.5l-.37 2.61c-1.2.25-2.26.89-3.03 1.78L5.44 7.35l-.75 1.3L6.8 10.2a5.55 5.55 0 0 0 0 3.6l-2.12 1.56.75 1.3 2.43-1.04c.77.88 1.82 1.52 3.01 1.76l.37 2.62h1.11c.26.75.65 1.42 1.19 2m-1.18-6.04c-.12.04-.24.04-.36.04-2.21 0-4-1.79-4-4s1.79-4 4-4 4 1.79 4 4c0 .12 0 .24-.04.36a6.05 6.05 0 0 0-3.6 3.6M14 12c0-1.1-.89-2-2-2s-2 .9-2 2 .9 2 2 2 2-.89 2-2m1 3h6v6h-6z"/></svg>

<svg xmlns="http://www.w3.org/2000/svg" id="mdi-cog-stop-outline" viewBox="0 0 24 24"><path d="M13.54 22H10C9.75 22 9.54 21.82 9.5 21.58L9.13 18.93C8.5 18.68 7.96 18.34 7.44 17.94L4.95 18.95C4.73 19.03 4.46 18.95 4.34 18.73L2.34 15.27C2.21 15.05 2.27 14.78 2.46 14.63L4.57 12.97L4.5 12L4.57 11L2.46 9.37C2.27 9.22 2.21 8.95 2.34 8.73L4.34 5.27C4.46 5.05 4.73 4.96 4.95 5.05L7.44 6.05C7.96 5.66 8.5 5.32 9.13 5.07L9.5 2.42C9.54 2.18 9.75 2 10 2H14C14.25 2 14.46 2.18 14.5 2.42L14.87 5.07C15.5 5.32 16.04 5.66 16.56 6.05L19.05 5.05C19.27 4.96 19.54 5.05 19.66 5.27L21.66 8.73C21.79 8.95 21.73 9.22 21.54 9.37L19.43 11L19.5 12L19.5 12.19C19 12.07 18.5 12 18 12C17.83 12 17.66 12 17.5 12.03C17.5 11.41 17.4 10.79 17.2 10.2L19.31 8.65L18.56 7.35L16.15 8.39C15.38 7.5 14.32 6.86 13.12 6.62L12.75 4H11.25L10.88 6.61C9.68 6.86 8.62 7.5 7.85 8.39L5.44 7.35L4.69 8.65L6.8 10.2C6.4 11.37 6.4 12.64 6.8 13.8L4.68 15.36L5.43 16.66L7.86 15.62C8.63 16.5 9.68 17.14 10.87 17.38L11.24 20H12.35C12.61 20.75 13 21.42 13.54 22M12.36 15.96C12.24 16 12.12 16 12 16C9.79 16 8 14.21 8 12S9.79 8 12 8 16 9.79 16 12C16 12.12 16 12.24 15.96 12.36C14.29 12.97 12.97 14.29 12.36 15.96M14 12C14 10.9 13.11 10 12 10S10 10.9 10 12 10.9 14 12 14 14 13.11 14 12M15 15H21V21H15V15Z" /></svg>
